resources/svg/fingerprint-fill.svg

<svg fill="currentColor" viewBox="0 0 24 24" xmlns="http://www.w3.org/2000/svg"><path d="M17.0003 13V14C17.0003 16.7696 16.3364 19.445 15.0853 21.8455L14.8585 22.2663L13.1116 21.2924C14.2716 19.2115 14.9211 16.8817 14.9935 14.4559L15.0003 14V13H17.0003ZM11.0003 10H13.0003V14L12.9948 14.3787C12.9153 17.1495 11.9645 19.7731 10.3038 21.928L10.073 22.2189L8.52406 20.9536C10.0408 19.0969 10.9145 16.8017 10.9943 14.3663L11.0003 14V10ZM12.0003 6C14.7617 6 17.0003 8.23858 17.0003 11H15.0003C15.0003 9.34315 13.6571 8 12.0003 8C10.3434 8 9.00025 9.34315 9.00025 11V14C9.00025 16.2354 8.1806 18.3444 6.72928 19.9768L6.51767 20.2067L5.06955 18.8273C6.23328 17.6056 6.92099 16.0118 6.99381 14.3027L7.00025 14V11C7.00025 8.23858 9.23883 6 12.0003 6ZM12.0003 2C16.9708 2 21.0003 6.02944 21.0003 11V14C21.0003 15.6979 20.7985 17.3699 20.4035 18.9903L20.2647 19.5285L18.3349 19.0032C18.726 17.5662 18.9475 16.0808 18.9919 14.5684L19.0003 14V11C19.0003 7.13401 15.8662 4 12.0003 4C10.4279 4 8.97663 4.51841 7.80805 5.39364L6.38308 3.96769C7.92267 2.73631 9.87547 2 12.0003 2ZM4.96794 5.38282L6.39389 6.8078C5.5635 7.91652 5.0543 9.27971 5.00431 10.7593L4.99961 10.999L5.00378 13C5.00378 14.1195 4.73991 15.2026 4.24263 16.1772L4.08648 16.4663L2.34961 15.4747C2.72889 14.8103 2.95077 14.0681 2.99539 13.2924L3.00378 13L3.00361 11C3.00025 8.87522 3.73656 6.92242 4.96794 5.38282Z"/></svg>

<svg xmlns="http://www.w3.org/2000/svg" viewBox="0 0 24 24" fill="currentColor">
    <g>
        <path fill="none" d="M0 0h24v24H0z"/>
        <path d="M17 13v1c0 2.77-.664 5.445-1.915 7.846l-.227.42-1.747-.974c1.16-2.08 1.81-4.41 1.882-6.836L15 14v-1h2zm-6-3h2v4l-.005.379a12.941 12.941 0 0 1-2.691 7.549l-.231.29-1.55-1.264a10.944 10.944 0 0 0 2.471-6.588L11 14v-4zm1-4a5 5 0 0 1 5 5h-2a3 3 0 0 0-6 0v3c0 2.235-.82 4.344-2.271 5.977l-.212.23-1.448-1.38a6.969 6.969 0 0 0 1.925-4.524L7 14v-3a5 5 0 0 1 5-5zm0-4a9 9 0 0 1 9 9v3c0 1.698-.202 3.37-.597 4.99l-.139.539-1.93-.526c.392-1.437.613-2.922.658-4.435L19 14v-3A7 7 0 0 0 7.808 5.394L6.383 3.968A8.962 8.962 0 0 1 12 2zM4.968 5.383l1.426 1.425a6.966 6.966 0 0 0-1.39 3.951L5 11 5.004 13c0 1.12-.264 2.203-.762 3.177l-.156.29-1.737-.992c.38-.665.602-1.407.646-2.183L3.004 13v-2a8.94 8.94 0 0 1 1.964-5.617z"/>
    </g>
</svg>
